symbolic/16x16/panel/indicator-trashindicator.svg

<svg xmlns="http://www.w3.org/2000/svg" width="16" height="16" version="1.1">
 <defs>
  <style id="current-color-scheme" type="text/css">
   .ColorScheme-Text { color:#323a41; } .ColorScheme-Highlight { color:#4285f4; } .ColorScheme-NeutralText { color:#ff9800; } .ColorScheme-PositiveText { color:#4caf50; } .ColorScheme-NegativeText { color:#f44336; }
  </style>
 </defs>
 <path style="fill:currentColor" class="ColorScheme-Text" d="M 2,5 V 14 C 2,14.524 2.4764,15 3,15 H 11 12 C 12.524,15 13,14.524 13,14 V 5 Z"/>
 <path style="fill:currentColor" class="ColorScheme-Text" d="M 1,3 V 4 L 14,3.997 V 2.997 C 14,1.997 13,1.9936 13,1.9936 H 10 C 10,1.9936 10,0.9936 9,0.9936 H 6.0002 C 5.0002,0.9936 5.0002,1.9936 5.0002,1.9936 H 2.0002 C 2.0004,1.9936 1.0002,1.9966 1.0002,2.997 Z"/>
</svg>

<svg xmlns="http://www.w3.org/2000/svg" width="16" height="16"><defs><style id="current-color-scheme" type="text/css">.ColorScheme-Text{color:#323a41}</style></defs><path style="fill:currentColor" class="ColorScheme-Text" d="M2 5v9c0 .524.476 1 1 1h9c.524 0 1-.476 1-1V5zM1 3v1l13-.003v-1c0-1-1-1.003-1-1.003h-3s0-1-1-1H6c-1 0-1 1-1 1H2s-1 .003-1 1.003z"/></svg>
